storage/app/icons/phosphoricons/light/lock-laminated-open-light.svg

<svg xmlns="http://www.w3.org/2000/svg" fill="currentColor" viewBox="0 0 256 256"><path d="M208 82H94V56a34 34 0 0 1 34-34c16.3 0 31 11.69 34.12 27.19a6 6 0 0 0 11.76-2.38C169.55 25.48 150.26 10 128 10a46.06 46.06 0 0 0-46 46v26H48a14 14 0 0 0-14 14v112a14 14 0 0 0 14 14h160a14 14 0 0 0 14-14V96a14 14 0 0 0-14-14M46 126h164v20H46Zm0 32h164v20H46Zm2-64h160a2 2 0 0 1 2 2v18H46V96a2 2 0 0 1 2-2m160 116H48a2 2 0 0 1-2-2v-18h164v18a2 2 0 0 1-2 2"/></svg>

<svg xmlns="http://www.w3.org/2000/svg" viewBox="0 0 256 256" fill="currentColor"><path d="M208,82H94V56a34,34,0,0,1,34-34c16.3,0,31,11.69,34.12,27.19a6,6,0,0,0,11.76-2.38C169.55,25.48,150.26,10,128,10A46.06,46.06,0,0,0,82,56V82H48A14,14,0,0,0,34,96V208a14,14,0,0,0,14,14H208a14,14,0,0,0,14-14V96A14,14,0,0,0,208,82ZM46,126H210v20H46Zm0,32H210v20H46Zm2-64H208a2,2,0,0,1,2,2v18H46V96A2,2,0,0,1,48,94ZM208,210H48a2,2,0,0,1-2-2V190H210v18A2,2,0,0,1,208,210Z"/></svg>
